X: 14
T: Off She Goes
R: jig
M: 6/8
L: 1/8
K: Dmaj
|: F2 A G2 B | ABc d3 | F2 A G2 B | AFD E3 |
F2 A G2 B | ABc d3 | f2 d g2 f | edc d3 :|
|: faf def | gbg e3 | faf def | ecA A3 |
faf def | gbg e3 | f2 d g2 f | edc d3 :|


Tune 1133	Setting 24483

